icons/markdown.svg

<svg width="16" height="16" viewBox="0 0 16 16" fill="none" xmlns="http://www.w3.org/2000/svg">
<path fill-rule="evenodd" clip-rule="evenodd" d="M2 3C1.44772 3 1 3.44772 1 4V12C1 12.5523 1.44772 13 2 13H14C14.5523 13 15 12.5523 15 12V4C15 3.44772 14.5523 3 14 3H2ZM3 5V11H4.30465V7.54571L5.14386 9.81714H5.82087L6.69535 7.51143V11H8V5H6.58251L5.52468 7.71714L4.48801 5H3ZM9 8L11.5 11L14 8H12V5H11V8H9Z" fill="#1CAED8"/>
</svg>

<svg xmlns="http://www.w3.org/2000/svg" width="16" height="16" fill="none"><path fill="#1CAED8" fill-rule="evenodd" d="M2 3a1 1 0 0 0-1 1v8a1 1 0 0 0 1 1h12a1 1 0 0 0 1-1V4a1 1 0 0 0-1-1H2Zm1 2v6h1.305V7.546l.839 2.271h.677l.874-2.306V11H8V5H6.583L5.525 7.717 4.488 5H3Zm6 3 2.5 3L14 8h-2V5h-1v3H9Z" clip-rule="evenodd"/></svg>
